X:1
T: Miss Elliot's Reel
C:Robert Mackintosh
R:Reel
Q: 232
K:C
M:4/4
L:1/8
|:G|EG Gc eg fd|ec fe dD DF|EF Gc eg ec|fa df ec cG|
EG Gc eg fd|ec fe dD DF|EG ce FA df|e1/2f1/2g df ec cf|
e1/2f1/2g cg af gf|e1/2f1/2g ec Bd ge|e1/2f1/2g cg af ge|fd gf ec cf|
e1/2f1/2g cg af gf|eg ec Bd dF|EG cE FA df|e1/2f1/2g d1/2e1/2f ec c:|
